X:1
T:The Oxen Song
M:4/4
L:1/4
K:Eb
 B,| G G A F| G E2 E| e e f e| c3| c| B3/2 =A/2 B c| G3/2- F/2 G E|\
 C E E D| E3||
